assets/mailru/mono.svg

<svg viewBox="0 0 24 24" xmlns="http://www.w3.org/2000/svg"><path d="m15.61 12c0 1.99-1.62 3.61-3.61 3.61s-3.61-1.62-3.61-3.61 1.62-3.61 3.61-3.61 3.61 1.62 3.61 3.61m-3.61-12c-6.617 0-12 5.383-12 12s5.383 12 12 12c2.424 0 4.761-.722 6.76-2.087l.034-.024-1.617-1.879-.027.017a9.494 9.494 0 0 1 -5.15 1.513c-5.26 0-9.54-4.28-9.54-9.54s4.28-9.54 9.54-9.54 9.54 4.28 9.54 9.54a9.63 9.63 0 0 1 -.225 2.05c-.301 1.239-1.169 1.618-1.82 1.568-.654-.053-1.42-.52-1.426-1.661v-1.957a6.076 6.076 0 0 0 -6.069-6.07 6.076 6.076 0 0 0 -6.07 6.07 6.076 6.076 0 0 0 6.07 6.07 6.02 6.02 0 0 0 4.3-1.792 3.9 3.9 0 0 0 3.32 1.805c.874 0 1.74-.292 2.437-.821.719-.547 1.256-1.336 1.553-2.285.047-.154.135-.504.135-.507l.002-.013c.175-.76.253-1.52.253-2.457 0-6.617-5.383-12-12-12"/></svg>

<svg xmlns="http://www.w3.org/2000/svg" viewBox="0 0 24 24"><path d="M15.61 12c0 1.99-1.62 3.61-3.61 3.61S8.39 13.99 8.39 12 10.01 8.39 12 8.39s3.61 1.62 3.61 3.61M12 0C5.383 0 0 5.383 0 12s5.383 12 12 12c2.424 0 4.761-.722 6.76-2.087l.034-.024-1.617-1.879-.027.017A9.5 9.5 0 0 1 12 21.54c-5.26 0-9.54-4.28-9.54-9.54S6.74 2.46 12 2.46s9.54 4.28 9.54 9.54a9.6 9.6 0 0 1-.225 2.05c-.301 1.239-1.169 1.618-1.82 1.568-.654-.053-1.42-.52-1.426-1.661V12A6.076 6.076 0 0 0 12 5.93 6.076 6.076 0 0 0 5.93 12 6.076 6.076 0 0 0 12 18.07a6.02 6.02 0 0 0 4.3-1.792 3.9 3.9 0 0 0 3.32 1.805c.874 0 1.74-.292 2.437-.821.719-.547 1.256-1.336 1.553-2.285.047-.154.135-.504.135-.507l.002-.013c.175-.76.253-1.52.253-2.457 0-6.617-5.383-12-12-12"/></svg>
